X:470
T: Tudi huanjia
N: C2089
O: China, Shanxi Zuoquan
S: I, 278]
N: Han
R: Xiaodiao]
M: 2/4
L: 1/16
K: Bb
b2bba2g2 | c2f2f4 | c2ffe2dc | b8 |
c2ffe2df | c2c2c2f2 | b2agf4 | d2cdf2ed | f8

